symbols/web/outdoor_grill/materialsymbolssharp/outdoor_grill_wght500fill1_20px.svg

<svg xmlns="http://www.w3.org/2000/svg" height="20" width="20"><path d="m4.5 19.5-1.521-1.021 3.604-5.521q-1.521-.729-2.489-2.239-.969-1.511-.906-3.386h11.958q.083 1.875-.886 3.407-.968 1.531-2.489 2.239l.25.417q-.479.166-.833.437-.355.271-.626.646l-.645-.979q-.25.042-.75.042h-.375q-.188 0-.375-.042l-1.438 2.188h3.917q.312-.75.958-1.209.646-.458 1.458-.458 1.084 0 1.834.75t.75 1.833q0 1.084-.75 1.834t-1.834.75q-.812 0-1.458-.459-.646-.458-.958-1.208H5.792Zm8.812-2.146q.313 0 .532-.219.218-.218.218-.531 0-.312-.218-.531-.219-.219-.532-.219-.312 0-.531.219-.219.219-.219.531 0 .313.219.531.219.219.531.219ZM6.729 6.458q.125-.583 0-1-.125-.416-.541-.896-.459-.541-.584-1.072-.125-.532 0-1.219h.938q-.104.604.01 1 .115.396.51.896.459.562.605 1.083.145.521.021 1.208Zm2.292 0q.104-.604-.011-1.01-.114-.406-.531-.886-.437-.52-.583-1.052-.146-.531-.042-1.239h.958q-.104.604.011 1.01.115.407.531.886.438.521.584 1.062.145.542.02 1.229Zm2.271 0q.125-.604 0-1.01t-.521-.886q-.459-.52-.604-1.052-.146-.531-.021-1.239h.937q-.104.604.021 1t.521.896q.458.521.594 1.062.135.542.01 1.229Z"/></svg>

<svg xmlns="http://www.w3.org/2000/svg" height="20" width="20"><path d="M4.5 19.5 2.979 18.479 6.583 12.958Q5.062 12.229 4.094 10.719Q3.125 9.208 3.188 7.333H15.146Q15.229 9.208 14.26 10.74Q13.292 12.271 11.771 12.979L12.021 13.396Q11.542 13.562 11.188 13.833Q10.833 14.104 10.562 14.479L9.917 13.5Q9.667 13.542 9.167 13.542Q8.979 13.542 8.792 13.542Q8.604 13.542 8.417 13.5L6.979 15.688H10.896Q11.208 14.938 11.854 14.479Q12.5 14.021 13.312 14.021Q14.396 14.021 15.146 14.771Q15.896 15.521 15.896 16.604Q15.896 17.688 15.146 18.438Q14.396 19.188 13.312 19.188Q12.5 19.188 11.854 18.729Q11.208 18.271 10.896 17.521H5.792ZM13.312 17.354Q13.625 17.354 13.844 17.135Q14.062 16.917 14.062 16.604Q14.062 16.292 13.844 16.073Q13.625 15.854 13.312 15.854Q13 15.854 12.781 16.073Q12.562 16.292 12.562 16.604Q12.562 16.917 12.781 17.135Q13 17.354 13.312 17.354ZM6.729 6.458Q6.854 5.875 6.729 5.458Q6.604 5.042 6.188 4.562Q5.729 4.021 5.604 3.49Q5.479 2.958 5.604 2.271H6.542Q6.438 2.875 6.552 3.271Q6.667 3.667 7.062 4.167Q7.521 4.729 7.667 5.25Q7.812 5.771 7.688 6.458ZM9.021 6.458Q9.125 5.854 9.01 5.448Q8.896 5.042 8.479 4.562Q8.042 4.042 7.896 3.51Q7.75 2.979 7.854 2.271H8.812Q8.708 2.875 8.823 3.281Q8.938 3.688 9.354 4.167Q9.792 4.688 9.938 5.229Q10.083 5.771 9.958 6.458ZM11.292 6.458Q11.417 5.854 11.292 5.448Q11.167 5.042 10.771 4.562Q10.312 4.042 10.167 3.51Q10.021 2.979 10.146 2.271H11.083Q10.979 2.875 11.104 3.271Q11.229 3.667 11.625 4.167Q12.083 4.688 12.219 5.229Q12.354 5.771 12.229 6.458Z"/></svg>
